X: 1
T: Mackilmoyle's Reel
C: Arr. J. Lindberg
R: reel
M:C|
K:D
|: "D"DFAd fdfd | "A"cdec "D"dBAG | "D"DFA=c "G"BGBG | "Em"FGAF "A7"E2FE |
   "D"DFAd fdfd | "A"cdec "D"dBAG | "D"DFA=c "G"BGBd | "A7"cdec "D"d2d2 :|
|: "A"cdef gfg2 | "D"Ace^g aga2 | "A"Acef gfge | "G"dfed "A"cBA2 |
   "A"cdef gfg2 | "D"Ace^g aga2 |\
[1 "A"Acef gfge | "A7"cdec "D"d2d2 :|[2 "G"b3a "Em"gfed | "A7"cdec "D"d3z |]
N:From printout - abc by Peter Ostapenko.
N:Last update - PO 2/24/2008.
N:D Major
